X:711
T: ES WAR EIN ZARTES JUNGFRAEUELEIN
N: E2155
O: Europa, Mitteleuropa, Oesterreich, Steiermark
R: geistlich, Moral - Lied, Tod
M: 6/8
L: 1/8
K: A
E | A2AABc | c2BA2
A | AccceB | d3c2
c | ceecAA | dffe2
e | dBdcec | B3A2

